src/assets/img/unsorted/emotes/64.svg

<svg xmlns:xlink="http://www.w3.org/1999/xlink" height="100.8" width="132.65" xmlns="http://www.w3.org/2000/svg"><g transform="translate(77.75 73.55)"><use height="26.5" transform="translate(-11.7 -10.75)" width="24.45" xlink:href="#a"/><use height="13.55" transform="translate(-12.1 .45)" width="24.95" xlink:href="#b"/></g><defs><use height="10.35" transform="translate(0 1.45)" width="24.95" xlink:href="#c" id="b"/><use height="10.35" width="24.95" xlink:href="#d" id="c"/><g id="a"><path d="M3.9-9.9q1.4.75 2.8 2.05 1.1 1 1.8 2.55l.65 1.9.55 3.05q3 1.65 3.05 2.55 0 .85-2.65.5L10 3.85 9.3 7.2l-1.05 3.4q-.55 1.85-1.7 3.05-1.2 1.3-3.05 1.7l-3.75.4q-1.9.05-3.45-.75-1.65-.8-2.35-2.5Q-6.7 11-7.8 9.45l-.95-2.35L-9 4.6v-.1l-.25-1.85q-2.45.3-2.45-.45 0-.7 2-1.85-.3-1.85.6-3.15.85-1.3 1.2-2.3.3-1.05 1.85-2.7 1.5-1.65 2.65-2.15 1.7-.75 3.65-.8 2-.05 3.65.85" fill-opacity=".153" fill-rule="evenodd" transform="translate(11.7 10.75)"/><path d="m.9-1.4 1.8-1.85q.8-.7 1.75-1.1 1.1-.6 2.4-.85l2.5.15.5.1h.2l-1.1 2.7-.6 1.1-.9 1.6q-1 1.2-2.3 1.4l-.5.05-1-.15Q2.6 1.4 1.85.45q-.65-.8-.9-1.7L.9-1.4m3.15.5.45-.2.2-.45L4.5-2l-.45-.2-.45.2-.2.45.2.45.45.2M-.2-1.45l-.05.2Q-.55-.3-1.2.5l-1.3 1.1-1.5.35-1.1-.2q-.95-.3-1.7-1.25l-.9-1.6q-.65-1.95-.75-4.15 4.65-.55 7.15 2.4l1.1 1.4m-3.05.55.45-.2.2-.45-.2-.45-.45-.2-.45.2-.2.45.2.45.45.2" fill="#fff" fill-rule="evenodd" transform="translate(11.7 10.75)"/><path d="m4.05-.9-.45-.2-.2-.45.2-.45.45-.2.45.2.2.45-.2.45-.45.2m-7.3 0-.45-.2-.2-.45.2-.45.45-.2.45.2.2.45-.2.45-.45.2" fill="#c00" fill-rule="evenodd" transform="translate(11.7 10.75)"/><path d="m.9-1.4.05.15q.25.9.9 1.7.75.95 1.8 1.3l1 .15.5-.05q1.3-.2 2.3-1.4l.9-1.6.6-1.1 1.1-2.7M-.2-1.45l-.05.2Q-.55-.3-1.2.5l-1.3 1.1-1.5.35-1.1-.2q-.95-.3-1.7-1.25l-.9-1.6q-.65-1.95-.75-4.15" fill="none" stroke="#900" stroke-linecap="round" stroke-linejoin="round" transform="translate(11.7 10.75)"/><path d="m9.85-4.95-.5-.1-2.5-.15q-1.3.25-2.4.85-.95.4-1.75 1.1L.9-1.4.7-2.65m-9.15-2.6q4.65-.55 7.15 2.4l1.1 1.4.15-1.2" fill="none" stroke="#666" stroke-linecap="round" stroke-linejoin="round" transform="translate(11.7 10.75)"/></g><g id="d"><path d="M15.75 5v.05l-.35.65-1.8-2.85-2.3 2.2-1.2-2.1L8.4 4.9l-1.85-2L4.5 5.25l-.2-.35-3-4.65q4.75 1.4 8.9 1.4 3.6 0 7.7-1.1L15.75 5M5.25 8.1l.4-2.65L8 7.3l.95-1.2 1.1 1.2 1.35-1.1.3.95 2.05-1.55.2 2.8-3.8.3-4.9-.6" fill="#fff" fill-rule="evenodd" transform="translate(2.4 1.15)"/><path d="M15.75 5 17.9.55l3.9-1.2q1 3.2-2.05 6.3L17.7 7.2 17 5.9q-.5-.7-1.25-.9M1.3.25l3 4.65-.65.15q-.9.45-1.6 1.65L.3 5.25Q-2.95 1.8-1.35-.65l2.65.9" fill-rule="evenodd" transform="translate(2.4 1.15)"/><path d="m4.3 4.9.2.35L6.55 2.9l1.85 2 1.7-1.95 1.2 2.1 2.3-2.2 1.8 2.85.35-.65V5q.75.2 1.25.9l.7 1.3q-1.6.85-3.75 1.2l-.2-2.8-2.05 1.55-.3-.95-1.35 1.1-1.1-1.2L8 7.3 5.65 5.45l-.4 2.65-.75-.2q-1.35-.5-2.45-1.2.7-1.2 1.6-1.65l.65-.15" fill="#900" fill-rule="evenodd" transform="translate(2.4 1.15)"/><path d="M17.9.55q-4.1 1.1-7.7 1.1-4.15 0-8.9-1.4l-2.65-.9Q-2.95 1.8.3 5.25L2.05 6.7q1.1.7 2.45 1.2l.75.2 4.9.6 3.8-.3q2.15-.35 3.75-1.2l2.05-1.55q3.05-3.1 2.05-6.3L17.9.55Z" fill="none" stroke="#666" stroke-linecap="round" stroke-linejoin="round" transform="translate(2.4 1.15)"/></g></defs></svg>

<?xml version="1.0" encoding="UTF-8" standalone="no"?>
<svg xmlns:xlink="http://www.w3.org/1999/xlink" height="100.8px" width="132.65px" xmlns="http://www.w3.org/2000/svg">
  <g transform="matrix(1.0, 0.0, 0.0, 1.0, 77.75, 73.55)">
    <use height="26.5" transform="matrix(1.0, 0.0, 0.0, 1.0, -11.7, -10.75)" width="24.45" xlink:href="#shape0"/>
    <use height="13.55" transform="matrix(1.0, 0.0, 0.0, 1.0, -12.1, 0.45)" width="24.95" xlink:href="#sprite0"/>
  </g>
  <defs>
    <g id="shape0" transform="matrix(1.0, 0.0, 0.0, 1.0, 11.7, 10.75)">
      <path d="M3.9 -9.9 Q5.3 -9.15 6.7 -7.85 7.8 -6.85 8.5 -5.3 L9.15 -3.4 9.7 -0.35 Q12.7 1.3 12.75 2.2 12.75 3.05 10.1 2.7 L10.0 3.85 9.3 7.2 8.25 10.6 Q7.7 12.45 6.55 13.65 5.35 14.95 3.5 15.35 L-0.25 15.75 Q-2.15 15.8 -3.7 15.0 -5.35 14.2 -6.05 12.5 -6.7 11.0 -7.8 9.45 L-8.75 7.1 -9.0 4.6 -9.0 4.5 -9.25 2.65 Q-11.7 2.95 -11.7 2.2 -11.7 1.5 -9.7 0.35 -10.0 -1.5 -9.1 -2.8 -8.25 -4.1 -7.9 -5.1 -7.6 -6.15 -6.05 -7.8 -4.55 -9.45 -3.4 -9.95 -1.7 -10.7 0.25 -10.75 2.25 -10.8 3.9 -9.9" fill="#000000" fill-opacity="0.15294118" fill-rule="evenodd" stroke="none"/>
      <path d="M0.9 -1.4 L2.7 -3.25 Q3.5 -3.95 4.45 -4.35 5.55 -4.95 6.85 -5.2 L9.35 -5.05 9.85 -4.95 10.05 -4.95 8.95 -2.25 8.35 -1.15 7.45 0.45 Q6.45 1.65 5.15 1.85 L4.65 1.9 3.65 1.75 Q2.6 1.4 1.85 0.45 1.2 -0.35 0.95 -1.25 L0.9 -1.4 M4.05 -0.9 L4.5 -1.1 4.7 -1.55 4.5 -2.0 4.05 -2.2 3.6 -2.0 3.4 -1.55 3.6 -1.1 4.05 -0.9 M-0.2 -1.45 L-0.25 -1.25 Q-0.55 -0.3 -1.2 0.5 L-2.5 1.6 -4.0 1.95 -5.1 1.75 Q-6.05 1.45 -6.8 0.5 L-7.7 -1.1 Q-8.35 -3.05 -8.45 -5.25 -3.8 -5.8 -1.3 -2.85 L-0.2 -1.45 M-3.25 -0.9 L-2.8 -1.1 -2.6 -1.55 -2.8 -2.0 -3.25 -2.2 -3.7 -2.0 -3.9 -1.55 -3.7 -1.1 -3.25 -0.9" fill="#ffffff" fill-rule="evenodd" stroke="none"/>
      <path d="M4.05 -0.9 L3.6 -1.1 3.4 -1.55 3.6 -2.0 4.05 -2.2 4.5 -2.0 4.7 -1.55 4.5 -1.1 4.05 -0.9 M-3.25 -0.9 L-3.7 -1.1 -3.9 -1.55 -3.7 -2.0 -3.25 -2.2 -2.8 -2.0 -2.6 -1.55 -2.8 -1.1 -3.25 -0.9" fill="#cc0000" fill-rule="evenodd" stroke="none"/>
      <path d="M0.9 -1.4 L0.95 -1.25 Q1.2 -0.35 1.85 0.45 2.6 1.4 3.65 1.75 L4.65 1.9 5.15 1.85 Q6.45 1.65 7.45 0.45 L8.35 -1.15 8.95 -2.25 10.05 -4.95 M-0.2 -1.45 L-0.25 -1.25 Q-0.55 -0.3 -1.2 0.5 L-2.5 1.6 -4.0 1.95 -5.1 1.75 Q-6.05 1.45 -6.8 0.5 L-7.7 -1.1 Q-8.35 -3.05 -8.45 -5.25" fill="none" stroke="#990000" stroke-linecap="round" stroke-linejoin="round" stroke-width="1.0"/>
      <path d="M9.85 -4.95 L9.35 -5.05 6.85 -5.2 Q5.55 -4.95 4.45 -4.35 3.5 -3.95 2.7 -3.25 L0.9 -1.4 0.7 -2.65 M-8.45 -5.25 Q-3.8 -5.8 -1.3 -2.85 L-0.2 -1.45 -0.05 -2.65" fill="none" stroke="#666666" stroke-linecap="round" stroke-linejoin="round" stroke-width="1.0"/>
    </g>
    <g id="sprite0" transform="matrix(1.0, 0.0, 0.0, 1.0, 2.4, 2.6)">
      <use height="10.35" transform="matrix(1.0, 0.0, 0.0, 1.0, -2.4, -1.15)" width="24.95" xlink:href="#sprite1"/>
    </g>
    <g id="sprite1" transform="matrix(1.0, 0.0, 0.0, 1.0, 2.4, 1.15)">
      <use height="10.35" transform="matrix(1.0, 0.0, 0.0, 1.0, -2.4, -1.15)" width="24.95" xlink:href="#shape1"/>
    </g>
    <g id="shape1" transform="matrix(1.0, 0.0, 0.0, 1.0, 2.4, 1.15)">
      <path d="M15.75 5.0 L15.75 5.05 15.4 5.7 13.6 2.85 11.3 5.05 10.1 2.95 8.4 4.9 6.55 2.9 4.5 5.25 4.3 4.9 1.3 0.25 Q6.05 1.65 10.2 1.65 13.8 1.65 17.9 0.55 L15.75 5.0 M5.25 8.1 L5.65 5.45 8.0 7.3 8.95 6.1 10.05 7.3 11.4 6.2 11.7 7.15 13.75 5.6 13.95 8.4 10.15 8.7 5.25 8.1" fill="#ffffff" fill-rule="evenodd" stroke="none"/>
      <path d="M15.75 5.0 L17.9 0.55 21.8 -0.65 Q22.8 2.55 19.75 5.65 L17.7 7.2 17.0 5.9 Q16.5 5.2 15.75 5.0 M1.3 0.25 L4.3 4.9 3.65 5.05 Q2.75 5.5 2.05 6.7 L0.3 5.25 Q-2.95 1.8 -1.35 -0.65 L1.3 0.25" fill="#000000" fill-rule="evenodd" stroke="none"/>
      <path d="M4.3 4.9 L4.5 5.25 6.55 2.9 8.4 4.9 10.1 2.95 11.3 5.05 13.6 2.85 15.4 5.7 15.75 5.05 15.75 5.0 Q16.5 5.2 17.0 5.9 L17.7 7.2 Q16.1 8.05 13.95 8.4 L13.75 5.6 11.7 7.15 11.4 6.2 10.05 7.3 8.95 6.1 8.0 7.3 5.65 5.45 5.25 8.1 4.5 7.9 Q3.15 7.4 2.05 6.7 2.75 5.5 3.65 5.05 L4.3 4.9" fill="#990000" fill-rule="evenodd" stroke="none"/>
      <path d="M17.9 0.55 Q13.8 1.65 10.2 1.65 6.05 1.65 1.3 0.25 L-1.35 -0.65 Q-2.95 1.8 0.3 5.25 L2.05 6.7 Q3.15 7.4 4.5 7.9 L5.25 8.1 10.15 8.7 13.95 8.4 Q16.1 8.05 17.7 7.2 L19.75 5.65 Q22.8 2.55 21.8 -0.65 L17.9 0.55 Z" fill="none" stroke="#666666" stroke-linecap="round" stroke-linejoin="round" stroke-width="1.0"/>
    </g>
  </defs>
</svg>
